X:1
T:Lady Maisry
M:2/2
L:1/4
K:F
 G| A c B A| G G G G| A B d B/2B/2| A3 D| G B/2B/2 A A/2A/2| G/2G/2 E D G|\
 A A G E| D3||
